icon-themes/breeze_svg/cmd/32/insertobjectfloatingframe.svg

<svg viewBox="0 0 32 32" xmlns="http://www.w3.org/2000/svg"><path d="m5 5v22h22v-22zm1 1h20v20h-20zm3 1v18h14v-12-1l-4-5h-1zm1 1h8v5h4v11h-12z" fill="#4d4d4d"/><path d="m4 4v24h24v-24zm1 1h22v22h-22z" fill="#f47750"/></svg>

<svg xmlns="http://www.w3.org/2000/svg" viewBox="0 0 32 32">
 <path 
     style="fill:#4d4d4d" 
     d="M 5 5 L 5 27 L 27 27 L 27 5 L 5 5 z M 6 6 L 26 6 L 26 26 L 6 26 L 6 6 z M 9 7 L 9 25 L 23 25 L 23 13 L 23 12 L 19 7 L 18 7 L 9 7 z M 10 8 L 18 8 L 18 13 L 22 13 L 22 24 L 10 24 L 10 8 z "
     />
 <path 
     style="fill:#f47750" 
     d="M 4 4 L 4 28 L 28 28 L 28 4 L 4 4 z M 5 5 L 27 5 L 27 27 L 5 27 L 5 5 z "
     />
</svg>
